wilib/img/svg/partes_mascote/mc_corpo.svg

<svg baseProfile="basic" width="119" height="187" viewBox="0 0 119 187" xmlns="http://www.w3.org/2000/svg"><path fill="none" d="M19 39.3Q3.2 75 3.65 106.45 3.9 134.4 20.1 154.1q3.73 4.535 7.8 8.025-2.484-.175-5.05-.175-9.55 0-16.2 3.35Q0 168.75 0 173.6q0 4.85 6.65 8.3 1.155.6 2.4 1.1 6.705 3.2 15.9 3.2 9.8 0 19.5-3.9.242-.1.475-.2 1.16-.497 2.175-1l.2-.1.4-.2q.05-.027.1-.05l.1-.05 5.525-4.325q.944-1.338 1.025-2.725 2.163.2 4.4.2 2.83 0 5.55-.3v.2q.053 4.722 9.95 8.85 9.55 3.85 19.4 3.85h.3q8.175-.045 14.3-2.525.898-.36 1.75-.775l.425-.225q.827-.364 1.625-.775 6.65-3.45 6.65-8.3 0-4.85-6.65-8.3-6.65-3.3-16.2-3.3h-1.025q-3 .047-5.875.325 4.28-3.636 8.15-8.475 15.65-19.7 15.4-47.65-.45-31.85-16.5-67.15Q78.25.15 57.5 0 45.15 0 34.1 13.45 26.25 22.95 19 39.3"/><path fill="none" stroke="#999" stroke-width=".85" stroke-linecap="round" stroke-linejoin="round" d="M3.65 106.45Q3.2 75 19 39.3m1.1 114.8Q3.9 134.4 3.65 106.45m24.25 55.675q-4.07-3.49-7.8-8.025m38.75 19.75q-2.237 0-4.4-.2m9.95-.1q-2.72.3-5.55.3M97.2 154.1q-3.87 4.84-8.15 8.475m23.55-56.125q.25 27.95-15.4 47.65M96.1 39.3q16.05 35.3 16.5 67.15M57.5 0q20.75.15 38.6 39.3m-62-25.85Q45.15 0 57.5 0M19 39.3q7.25-16.35 15.1-25.85"/><path fill="none" stroke="#999" stroke-width="1.1" stroke-linecap="round" stroke-linejoin="round" d="M22.85 161.95q2.566 0 5.05.175M6.65 165.3q6.65-3.35 16.2-3.35M0 173.6q0-4.85 6.65-8.3m0 16.6Q0 178.45 0 173.6m9.05 9.4q-1.245-.5-2.4-1.1m18.3 4.3q-9.195 0-15.9-3.2m35.4-.7q-9.7 3.9-19.5 3.9m19.975-4.1q-.233.1-.475.2m2.65-1.2q-1.015.503-2.175 1M47.3 181l-.2.1m.6-.3l-.4.2m.5-.25q-.05.023-.1.05m.2-.1l-.1.05m5.625-4.375L47.9 180.7m6.55-7.05q-.08 1.387-1.025 2.725M64.4 173.75v-.05m9.95 8.9q-9.897-4.128-9.95-8.85m29.35 12.7q-9.85 0-19.4-3.85m19.7 3.85h-.3m14.6-2.525q-6.125 2.48-14.3 2.525m16.05-3.3q-.852.414-1.75.775m2.175-1l-.425.225m2.05-1q-.798.41-1.625.775m8.275-9.075q0 4.85-6.65 8.3m0-16.6q6.65 3.45 6.65 8.3m-22.85-11.6q9.55 0 16.2 3.3m-16.5-3.3h.3m-.575 0h.275m-.525 0h.25m-.45 0h.2m-6.075.325q2.874-.278 5.875-.325"/><path fill="#FFF" d="M67.225 169.225q-.683.495-1.2 1.025 2.126-2.094 6.95-3.8l.55-.225q-4.045 1.38-6.3 3m0 0q-.683.495-1.2 1.025l-1.625 3.3q-2.72.3-5.55.3-2.237 0-4.4-.2v-.2q-.016-1.457-1.05-2.775-1.024-1.303-3.05-2.475 5.35 1.38 11.15 1.4 2.927-.007 5.725-.375M34.1 26.7Q46.35 8.15 60.25 8.2 79.5 8.15 96.1 44.6q14.8 32.9 15.25 62.4.25 26.05-14.3 44.3-6.035 7.57-13.175 12-.374.07-.75.15l-5.1 1.25q-.553.154-1.1.325-.183.063-.375.125-1.644.52-3.025 1.075-4.045 1.38-6.3 3-2.798.368-5.725.375-5.8-.02-11.15-1.4-.026-.01-.05-.025-1.902-1.107-4.7-2.1-1.506-.632-3.35-1.225-.652-.21-1.3-.4-3.548-1.917-6.85-4.55-4.55-3.6-8.6-8.6-15.1-18.4-15.35-44.3-.3-29.2 14.4-62.4 4.65-10.45 9.55-17.9"/><path fill="none" stroke="#999" stroke-width="1.1" stroke-linecap="round" stroke-linejoin="round" d="M66.025 170.25q2.126-2.094 6.95-3.8l.55-.225"/><path fill="#FFF" d="M78.025 164.7q-.553.154-1.1.325-.183.063-.375.125-1.644.52-3.025 1.075l-.55.225q-6.375 2.736-6.375 6.3 0 4.7 9.95 8.85 9.55 4.05 19.4 4.05 8.297 0 14.575-2.725.827-.364 1.625-.775 6.65-3.45 6.65-8.3 0-4.85-6.65-8.3-6.65-3.3-16.2-3.3h-1.025q-3 .047-5.875.325-.195.02-.4.05l-4.175.575q-.683.12-1.35.25l-5.1 1.25M34.1 26.7Q46.35 8.15 60.25 8.2 79.5 8.15 96.1 44.6q14.8 32.9 15.25 62.4.25 26.05-14.3 44.3-6.035 7.57-13.175 12-.374.07-.75.15l-5.1 1.25q-.553.154-1.1.325-.183.063-.375.125-1.644.52-3.025 1.075-4.045 1.38-6.3 3-2.798.368-5.725.375-5.8-.02-11.15-1.4-.026-.01-.05-.025-1.902-1.107-4.7-2.1-1.506-.632-3.35-1.225-.652-.21-1.3-.4-3.548-1.917-6.85-4.55-4.55-3.6-8.6-8.6-15.1-18.4-15.35-44.3-.3-29.2 14.4-62.4 4.65-10.45 9.55-17.9"/><path fill="none" stroke="#999" stroke-width="1.1" stroke-linecap="round" stroke-linejoin="round" d="M78.025 164.7q-.553.154-1.1.325-.183.063-.375.125-1.644.52-3.025 1.075l-.55.225q-6.375 2.736-6.375 6.3 0 4.7 9.95 8.85 9.55 4.05 19.4 4.05 8.297 0 14.575-2.725.827-.364 1.625-.775 6.65-3.45 6.65-8.3 0-4.85-6.65-8.3-6.65-3.3-16.2-3.3h-1.025q-3 .047-5.875.325-.195.02-.4.05l-4.175.575q-.683.12-1.35.25l-5.1 1.25"/><path fill="#999" d="M72.975 166.45q-4.824 1.706-6.95 3.8l-1.625 3.3v.2q.053 4.722 9.95 8.85 9.55 3.85 19.4 3.85h.3q8.175-.045 14.3-2.525.898-.36 1.75-.775l.425-.225q-6.278 2.725-14.575 2.725-9.85 0-19.4-4.05-9.95-4.15-9.95-8.85 0-3.564 6.375-6.3M34.1 26.7Q46.35 8.15 60.25 8.2 79.5 8.15 96.1 44.6q14.8 32.9 15.25 62.4.25 26.05-14.3 44.3-6.035 7.57-13.175 12-.374.07-.75.15l-5.1 1.25q-.553.154-1.1.325-.183.063-.375.125-1.644.52-3.025 1.075-4.045 1.38-6.3 3-2.798.368-5.725.375-5.8-.02-11.15-1.4-.026-.01-.05-.025-1.902-1.107-4.7-2.1-1.506-.632-3.35-1.225-.652-.21-1.3-.4-3.548-1.917-6.85-4.55-4.55-3.6-8.6-8.6-15.1-18.4-15.35-44.3-.3-29.2 14.4-62.4 4.65-10.45 9.55-17.9"/><path fill="none" stroke="#999" stroke-width="1.1" stroke-linecap="round" stroke-linejoin="round" d="M72.975 166.45q-4.824 1.706-6.95 3.8l-1.625 3.3m0 .15v.05q.053 4.722 9.95 8.85 9.55 3.85 19.4 3.85h.3q8.175-.045 14.3-2.525.898-.36 1.75-.775l.425-.225q-6.278 2.725-14.575 2.725-9.85 0-19.4-4.05-9.95-4.15-9.95-8.85 0-3.564 6.375-6.3"/><path fill="#FFF" d="M83.125 163.45q.667-.13 1.35-.25-.306.047-.6.1-.374.07-.75.15"/><path fill="none" stroke="#999" stroke-width="1.1" stroke-linecap="round" stroke-linejoin="round" d="M83.125 163.45q.667-.13 1.35-.25"/><path fill="none" stroke="#999" stroke-width=".85" stroke-linecap="round" stroke-linejoin="round" d="M58.85 173.85q2.83 0 5.55-.3m-9.95.1q2.163.2 4.4.2m2.65-4.25q-5.8-.02-11.15-1.4m16.875 1.025q-2.798.368-5.725.375"/><path fill="none" stroke="#999" stroke-width="1.1" stroke-linecap="round" stroke-linejoin="round" d="M64.4 173.55l1.625-3.3m-11.575 3.2v.2m-1.05-2.975q1.034 1.318 1.05 2.775m-4.1-5.25q2.026 1.172 3.05 2.475"/><path fill="none" stroke="#999" stroke-width=".85" stroke-linecap="round" stroke-linejoin="round" d="M10.15 107q-.3-29.2 14.4-62.4m.95 106.7Q10.4 132.9 10.15 107m23.95 52.9q-4.55-3.6-8.6-8.6m15.45 13.15q-3.548-1.917-6.85-4.55m-14-5.8q3.73 4.535 7.8 8.025M3.65 106.45Q3.9 134.4 20.1 154.1M19 39.3Q3.2 75 3.65 106.45m30.45-93Q26.25 22.95 19 39.3M57.5 0Q45.15 0 34.1 13.45m62 25.85Q78.25.15 57.5 0m55.1 106.45q-.45-31.85-16.5-67.15m1.1 114.8q15.65-19.7 15.4-47.65m-23.55 56.125q4.28-3.636 8.15-8.475m-.15-2.8q-6.035 7.57-13.175 12M111.35 107q.25 26.05-14.3 44.3M96.1 44.6q14.8 32.9 15.25 62.4M60.25 8.2Q79.5 8.15 96.1 44.6m-62-17.9Q46.35 8.15 60.25 8.2m-35.7 36.4q4.65-10.45 9.55-17.9"/><path fill="none" stroke="#999" stroke-width="1.1" stroke-linecap="round" stroke-linejoin="round" d="M27.9 162.125q6.843.49 13.05 2.325m47.7-1.825q.205-.03.4-.05m-4.575.625l4.175-.575"/><path fill="none" stroke="#999" stroke-width=".85" stroke-linecap="round" stroke-linejoin="round" d="M60.25 8.2q-13.9-.05-26.15 18.5m62 17.9Q79.5 8.15 60.25 8.2m51.1 98.8q-.45-29.5-15.25-62.4m.95 106.7q14.55-18.25 14.3-44.3m-27.475 56.3q7.14-4.43 13.175-12M61.5 169.6q2.927-.007 5.725-.375M50.35 168.2q5.35 1.38 11.15 1.4m-27.4-9.7q3.302 2.633 6.85 4.55M25.5 151.3q4.05 5 8.6 8.6M10.15 107q.25 25.9 15.35 44.3m-.95-106.7Q9.85 77.8 10.15 107M34.1 26.7q-4.9 7.45-9.55 17.9"/><path fill="none" stroke="#999" stroke-width="1.1" stroke-linecap="round" stroke-linejoin="round" d="M78.025 164.7l5.1-1.25m-6.2 1.575q.547-.17 1.1-.325m-1.475.45q.192-.062.375-.125m-3.4 1.2q1.38-.554 3.025-1.075m-26.25 3.025q.024.014.05.025m-4.75-2.125q2.798.993 4.7 2.1m-8.05-3.325q1.844.593 3.35 1.225m-4.65-1.625q.648.19 1.3.4"/><path fill="#FFF" stroke="#999" stroke-width="1.1" stroke-linecap="round" stroke-linejoin="round" d="M27.9 162.125q-2.484-.175-5.05-.175-9.55 0-16.2 3.35Q0 168.75 0 173.6q0 4.85 6.65 8.3 1.155.6 2.4 1.1 5.91 2.35 13.8 2.35 9.85 0 19.4-4 9.95-4.15 9.95-8.85 0-3.625-6.6-6.425-1.506-.632-3.35-1.225-.652-.21-1.3-.4-6.207-1.836-13.05-2.325"/><path fill="#999" stroke="#999" stroke-width="1.1" stroke-linecap="round" stroke-linejoin="round" d="M22.85 185.35q-7.89 0-13.8-2.35 6.705 3.2 15.9 3.2 9.8 0 19.5-3.9.242-.1.475-.2 1.16-.497 2.175-1l.2-.1.4-.2q.05-.027.1-.05l.1-.05 5.525-4.325q.944-1.338 1.025-2.725v-.2q-.016-1.457-1.05-2.775-1.024-1.303-3.05-2.475-.026-.01-.05-.025-1.902-1.107-4.7-2.1 6.6 2.8 6.6 6.425 0 4.7-9.95 8.85-9.55 4-19.4 4"/><path fill="#999" d="M57.45 0Q36.45 0 19 39.3 3.2 75.05 3.6 106.45q.3 27.95 16.5 47.6 16.2 19.8 38.75 19.8t38.35-19.8q15.65-19.65 15.35-47.6-.4-31.85-16.45-67.15Q78.25.15 57.45 0"/><path fill="#FFF" d="M60.25 8.15q-19.55 0-35.75 36.4Q9.85 77.8 10.15 107q.25 25.9 15.35 44.3 14.95 18.25 36 18.25 21 0 35.55-18.25 14.55-18.25 14.25-44.3-.4-29.5-15.2-62.45-16.6-36.4-35.85-36.4"/></svg>

<?xml version="1.0" encoding="utf-8"?><svg xmlns:xlink="http://www.w3.org/1999/xlink" id="Cena_1" image-rendering="auto" baseProfile="basic" version="1.1" x="0px" y="0px" width="119" height="187" viewBox="0 0 119 187" xmlns="http://www.w3.org/2000/svg"><g><path fill="none" d="M19,39.3Q3.2,75 3.65,106.45 3.9,134.4 20.1,154.1 23.831,158.635 27.9,162.125 25.416,161.95 22.85,161.95 13.3,161.95 6.65,165.3 0,168.75 0,173.6 0,178.45 6.65,181.9 7.805,182.499 9.05,183 15.755,186.2 24.95,186.2 34.75,186.2 44.45,182.3 44.692,182.199 44.925,182.1 46.085,181.603 47.1,181.1 47.206,181.047 47.3,181 47.506,180.896 47.7,180.8 47.751,180.773 47.8,180.75 47.85,180.724 47.9,180.7L53.425,176.375Q54.369,175.037 54.45,173.65 56.613,173.85 58.85,173.85 61.68,173.85 64.4,173.55 64.4,173.619 64.4,173.7L64.4,173.75Q64.453,178.472 74.35,182.6 83.9,186.45 93.75,186.45 93.899,186.45 94.05,186.45 102.225,186.405 108.35,183.925 109.248,183.564 110.1,183.15 110.313,183.037 110.525,182.925 111.352,182.561 112.15,182.15 118.8,178.7 118.8,173.85 118.8,169 112.15,165.55 105.5,162.25 95.95,162.25 95.801,162.25 95.65,162.25 95.512,162.251 95.375,162.25 95.247,162.251 95.125,162.25 95.023,162.251 94.925,162.25 91.924,162.297 89.05,162.575 93.329,158.939 97.2,154.1 112.85,134.4 112.6,106.45 112.15,74.6 96.1,39.3 78.25,0.15 57.5,0 45.15,0 34.1,13.45 26.25,22.95 19,39.3"/><path fill="none" stroke="#999" stroke-width="0.85" stroke-linecap="round" stroke-linejoin="round" d="M3.65,106.45Q3.2,75 19,39.3M20.1,154.1Q3.9,134.4 3.65,106.45M27.9,162.125Q23.831,158.635 20.1,154.1M58.85,173.85Q56.613,173.85 54.45,173.65M64.4,173.55Q61.68,173.85 58.85,173.85M97.2,154.1Q93.329,158.939 89.05,162.575M112.6,106.45Q112.85,134.4 97.2,154.1M96.1,39.3Q112.15,74.6 112.6,106.45M57.5,0Q78.25,0.15 96.1,39.3M34.1,13.45Q45.15,0 57.5,0M19,39.3Q26.25,22.95 34.1,13.45"/><path fill="none" stroke="#999" stroke-width="1.1" stroke-linecap="round" stroke-linejoin="round" d="M22.85,161.95Q25.416,161.95 27.9,162.125M6.65,165.3Q13.3,161.95 22.85,161.95M0,173.6Q0,168.75 6.65,165.3M6.65,181.9Q0,178.45 0,173.6M9.05,183Q7.805,182.499 6.65,181.9M24.95,186.2Q15.755,186.2 9.05,183M44.45,182.3Q34.75,186.2 24.95,186.2M44.925,182.1Q44.692,182.199 44.45,182.3M47.1,181.1Q46.085,181.603 44.925,182.1M47.3,181Q47.206,181.047 47.1,181.1M47.7,180.8Q47.506,180.896 47.3,181M47.8,180.75Q47.751,180.773 47.7,180.8M47.9,180.7Q47.85,180.724 47.8,180.75M53.425,176.375L47.9,180.7M54.45,173.65Q54.369,175.037 53.425,176.375M64.4,173.75L64.4,173.7M74.35,182.6Q64.453,178.472 64.4,173.75M93.75,186.45Q83.9,186.45 74.35,182.6M94.05,186.45Q93.899,186.45 93.75,186.45M108.35,183.925Q102.225,186.405 94.05,186.45M110.1,183.15Q109.248,183.564 108.35,183.925M110.525,182.925Q110.313,183.037 110.1,183.15M112.15,182.15Q111.352,182.561 110.525,182.925M118.8,173.85Q118.8,178.7 112.15,182.15M112.15,165.55Q118.8,169 118.8,173.85M95.95,162.25Q105.5,162.25 112.15,165.55M95.65,162.25Q95.801,162.25 95.95,162.25M95.375,162.25Q95.512,162.251 95.65,162.25M95.125,162.25Q95.247,162.251 95.375,162.25M94.925,162.25Q95.023,162.251 95.125,162.25M89.05,162.575Q91.924,162.297 94.925,162.25"/><path fill="#FFF" d="M67.225,169.225Q66.542,169.72 66.025,170.25 68.151,168.156 72.975,166.45 73.245,166.339 73.525,166.225 69.48,167.605 67.225,169.225 M67.225,169.225Q66.542,169.72 66.025,170.25L64.4,173.55Q61.68,173.85 58.85,173.85 56.613,173.85 54.45,173.65 54.449,173.552 54.45,173.45 54.434,171.993 53.4,170.675 52.376,169.372 50.35,168.2 55.699,169.581 61.5,169.6 64.427,169.593 67.225,169.225 M34.1,26.7Q46.35,8.15 60.25,8.2 79.5,8.15 96.1,44.6 110.9,77.5 111.35,107 111.6,133.05 97.05,151.3 91.015,158.869 83.875,163.3 83.501,163.37 83.125,163.45L78.025,164.7Q77.472,164.854 76.925,165.025 76.742,165.088 76.55,165.15 74.906,165.671 73.525,166.225 69.48,167.605 67.225,169.225 64.427,169.593 61.5,169.6 55.699,169.581 50.35,168.2 50.324,168.189 50.3,168.175 48.398,167.068 45.6,166.075 44.094,165.443 42.25,164.85 41.598,164.64 40.95,164.45 37.402,162.533 34.1,159.9 29.55,156.3 25.5,151.3 10.4,132.9 10.15,107 9.85,77.8 24.55,44.6 29.2,34.15 34.1,26.7"/><path fill="none" stroke="#999" stroke-width="1.1" stroke-linecap="round" stroke-linejoin="round" d="M66.025,170.25Q68.151,168.156 72.975,166.45 73.245,166.339 73.525,166.225"/><path fill="#FFF" d="M78.025,164.7Q77.472,164.854 76.925,165.025 76.742,165.088 76.55,165.15 74.906,165.671 73.525,166.225 73.245,166.339 72.975,166.45 66.6,169.186 66.6,172.75 66.6,177.45 76.55,181.6 86.1,185.65 95.95,185.65 104.247,185.65 110.525,182.925 111.352,182.561 112.15,182.15 118.8,178.7 118.8,173.85 118.8,169 112.15,165.55 105.5,162.25 95.95,162.25 95.801,162.25 95.65,162.25 95.512,162.251 95.375,162.25 95.247,162.251 95.125,162.25 95.023,162.251 94.925,162.25 91.924,162.297 89.05,162.575 88.855,162.595 88.65,162.625L84.475,163.2Q83.792,163.32 83.125,163.45L78.025,164.7 M34.1,26.7Q46.35,8.15 60.25,8.2 79.5,8.15 96.1,44.6 110.9,77.5 111.35,107 111.6,133.05 97.05,151.3 91.015,158.869 83.875,163.3 83.501,163.37 83.125,163.45L78.025,164.7Q77.472,164.854 76.925,165.025 76.742,165.088 76.55,165.15 74.906,165.671 73.525,166.225 69.48,167.605 67.225,169.225 64.427,169.593 61.5,169.6 55.699,169.581 50.35,168.2 50.324,168.189 50.3,168.175 48.398,167.068 45.6,166.075 44.094,165.443 42.25,164.85 41.598,164.64 40.95,164.45 37.402,162.533 34.1,159.9 29.55,156.3 25.5,151.3 10.4,132.9 10.15,107 9.85,77.8 24.55,44.6 29.2,34.15 34.1,26.7"/><path fill="none" stroke="#999" stroke-width="1.1" stroke-linecap="round" stroke-linejoin="round" d="M78.025,164.7Q77.472,164.854 76.925,165.025 76.742,165.088 76.55,165.15 74.906,165.671 73.525,166.225 73.245,166.339 72.975,166.45 66.6,169.186 66.6,172.75 66.6,177.45 76.55,181.6 86.1,185.65 95.95,185.65 104.247,185.65 110.525,182.925 111.352,182.561 112.15,182.15 118.8,178.7 118.8,173.85 118.8,169 112.15,165.55 105.5,162.25 95.95,162.25 95.801,162.25 95.65,162.25 95.512,162.251 95.375,162.25 95.247,162.251 95.125,162.25 95.023,162.251 94.925,162.25 91.924,162.297 89.05,162.575 88.855,162.595 88.65,162.625L84.475,163.2Q83.792,163.32 83.125,163.45L78.025,164.7"/><path fill="#999" d="M72.975,166.45Q68.151,168.156 66.025,170.25L64.4,173.55Q64.4,173.619 64.4,173.7L64.4,173.75Q64.453,178.472 74.35,182.6 83.9,186.45 93.75,186.45 93.899,186.45 94.05,186.45 102.225,186.405 108.35,183.925 109.248,183.564 110.1,183.15 110.313,183.037 110.525,182.925 104.247,185.65 95.95,185.65 86.1,185.65 76.55,181.6 66.6,177.45 66.6,172.75 66.6,169.186 72.975,166.45 M34.1,26.7Q46.35,8.15 60.25,8.2 79.5,8.15 96.1,44.6 110.9,77.5 111.35,107 111.6,133.05 97.05,151.3 91.015,158.869 83.875,163.3 83.501,163.37 83.125,163.45L78.025,164.7Q77.472,164.854 76.925,165.025 76.742,165.088 76.55,165.15 74.906,165.671 73.525,166.225 69.48,167.605 67.225,169.225 64.427,169.593 61.5,169.6 55.699,169.581 50.35,168.2 50.324,168.189 50.3,168.175 48.398,167.068 45.6,166.075 44.094,165.443 42.25,164.85 41.598,164.64 40.95,164.45 37.402,162.533 34.1,159.9 29.55,156.3 25.5,151.3 10.4,132.9 10.15,107 9.85,77.8 24.55,44.6 29.2,34.15 34.1,26.7"/><path fill="none" stroke="#999" stroke-width="1.1" stroke-linecap="round" stroke-linejoin="round" d="M72.975,166.45Q68.151,168.156 66.025,170.25L64.4,173.55M64.4,173.7L64.4,173.75Q64.453,178.472 74.35,182.6 83.9,186.45 93.75,186.45 93.899,186.45 94.05,186.45 102.225,186.405 108.35,183.925 109.248,183.564 110.1,183.15 110.313,183.037 110.525,182.925 104.247,185.65 95.95,185.65 86.1,185.65 76.55,181.6 66.6,177.45 66.6,172.75 66.6,169.186 72.975,166.45"/><path fill="#FFF" d="M83.125,163.45Q83.792,163.32 84.475,163.2 84.169,163.247 83.875,163.3 83.501,163.37 83.125,163.45"/><path fill="none" stroke="#999" stroke-width="1.1" stroke-linecap="round" stroke-linejoin="round" d="M83.125,163.45Q83.792,163.32 84.475,163.2"/><path fill="none" stroke="#999" stroke-width="0.85" stroke-linecap="round" stroke-linejoin="round" d="M58.85,173.85Q61.68,173.85 64.4,173.55M54.45,173.65Q56.613,173.85 58.85,173.85M61.5,169.6Q55.699,169.581 50.35,168.2M67.225,169.225Q64.427,169.593 61.5,169.6"/><path fill="none" stroke="#999" stroke-width="1.1" stroke-linecap="round" stroke-linejoin="round" d="M64.4,173.55L66.025,170.25M54.45,173.45Q54.449,173.552 54.45,173.65M53.4,170.675Q54.434,171.993 54.45,173.45M50.35,168.2Q52.376,169.372 53.4,170.675"/><path fill="none" stroke="#999" stroke-width="0.85" stroke-linecap="round" stroke-linejoin="round" d="M10.15,107Q9.85,77.8 24.55,44.6M25.5,151.3Q10.4,132.9 10.15,107M34.1,159.9Q29.55,156.3 25.5,151.3M40.95,164.45Q37.402,162.533 34.1,159.9M20.1,154.1Q23.831,158.635 27.9,162.125M3.65,106.45Q3.9,134.4 20.1,154.1M19,39.3Q3.2,75 3.65,106.45M34.1,13.45Q26.25,22.95 19,39.3M57.5,0Q45.15,0 34.1,13.45M96.1,39.3Q78.25,0.15 57.5,0M112.6,106.45Q112.15,74.6 96.1,39.3M97.2,154.1Q112.85,134.4 112.6,106.45M89.05,162.575Q93.329,158.939 97.2,154.1M97.05,151.3Q91.015,158.869 83.875,163.3M111.35,107Q111.6,133.05 97.05,151.3M96.1,44.6Q110.9,77.5 111.35,107M60.25,8.2Q79.5,8.15 96.1,44.6M34.1,26.7Q46.35,8.15 60.25,8.2M24.55,44.6Q29.2,34.15 34.1,26.7"/><path fill="none" stroke="#999" stroke-width="1.1" stroke-linecap="round" stroke-linejoin="round" d="M27.9,162.125Q34.743,162.614 40.95,164.45M88.65,162.625Q88.855,162.595 89.05,162.575M84.475,163.2L88.65,162.625"/><path fill="none" stroke="#999" stroke-width="0.85" stroke-linecap="round" stroke-linejoin="round" d="M60.25,8.2Q46.35,8.15 34.1,26.7M96.1,44.6Q79.5,8.15 60.25,8.2M111.35,107Q110.9,77.5 96.1,44.6M97.05,151.3Q111.6,133.05 111.35,107M83.875,163.3Q91.015,158.869 97.05,151.3M61.5,169.6Q64.427,169.593 67.225,169.225M50.35,168.2Q55.699,169.581 61.5,169.6M34.1,159.9Q37.402,162.533 40.95,164.45M25.5,151.3Q29.55,156.3 34.1,159.9M10.15,107Q10.4,132.9 25.5,151.3M24.55,44.6Q9.85,77.8 10.15,107M34.1,26.7Q29.2,34.15 24.55,44.6"/><path fill="none" stroke="#999" stroke-width="1.1" stroke-linecap="round" stroke-linejoin="round" d="M78.025,164.7L83.125,163.45M76.925,165.025Q77.472,164.854 78.025,164.7M76.55,165.15Q76.742,165.088 76.925,165.025M73.525,166.225Q74.906,165.671 76.55,165.15M50.3,168.175Q50.324,168.189 50.35,168.2M45.6,166.075Q48.398,167.068 50.3,168.175M42.25,164.85Q44.094,165.443 45.6,166.075M40.95,164.45Q41.598,164.64 42.25,164.85"/><path fill="#FFF" stroke="#999" stroke-width="1.1" stroke-linecap="round" stroke-linejoin="round" d="M27.9,162.125Q25.416,161.95 22.85,161.95 13.3,161.95 6.65,165.3 0,168.75 0,173.6 0,178.45 6.65,181.9 7.805,182.499 9.05,183 14.959,185.35 22.85,185.35 32.7,185.35 42.25,181.35 52.2,177.2 52.2,172.5 52.2,168.875 45.6,166.075 44.094,165.443 42.25,164.85 41.598,164.64 40.95,164.45 34.743,162.614 27.9,162.125"/><path fill="#999" stroke="#999" stroke-width="1.1" stroke-linecap="round" stroke-linejoin="round" d="M22.85,185.35Q14.959,185.35 9.05,183 15.755,186.2 24.95,186.2 34.75,186.2 44.45,182.3 44.692,182.199 44.925,182.1 46.085,181.603 47.1,181.1 47.206,181.047 47.3,181 47.506,180.896 47.7,180.8 47.751,180.773 47.8,180.75 47.85,180.724 47.9,180.7L53.425,176.375Q54.369,175.037 54.45,173.65 54.449,173.552 54.45,173.45 54.434,171.993 53.4,170.675 52.376,169.372 50.35,168.2 50.324,168.189 50.3,168.175 48.398,167.068 45.6,166.075 52.2,168.875 52.2,172.5 52.2,177.2 42.25,181.35 32.7,185.35 22.85,185.35"/><path fill="#999" d="M57.45,0Q36.45,0 19,39.3 3.2,75.05 3.6,106.45 3.9,134.4 20.1,154.05 36.3,173.85 58.85,173.85 81.4,173.85 97.2,154.05 112.85,134.4 112.55,106.45 112.15,74.6 96.1,39.3 78.25,0.15 57.45,0"/><path fill="#FFF" d="M60.25,8.15Q40.7,8.15 24.5,44.55 9.85,77.8 10.15,107 10.4,132.9 25.5,151.3 40.45,169.55 61.5,169.55 82.5,169.55 97.05,151.3 111.6,133.05 111.3,107 110.9,77.5 96.1,44.55 79.5,8.15 60.25,8.15"/></g><defs/></svg>
